X:19195
T:Yellow Rose Of Texas
S:Comando list, 7/97, Peter Freitag
O:American
M:3/4
Q:126
K:D
|:FG A2 A2| B2 B2 A2| F4 AB d2| d2 d2 e2| f4 ef| g2 f2 e2| g2 f2 d2|\
[1 d2 c2 e2| e2 f2 e2 :|[2 cB A2 g2| f2 e2 d2|
